Newaita-dark/apps/48/accessories-ebook-reader.svg

<svg height="48pt" viewBox="0 0 48 48" width="48pt" xmlns="http://www.w3.org/2000/svg" xmlns:xlink="http://www.w3.org/1999/xlink"><linearGradient id="a" gradientUnits="userSpaceOnUse" x1="17.861087" x2="17.861087" y1="42.0509045" y2="44.03547050005"><stop offset="0" stop-opacity=".27451"/><stop offset="1" stop-opacity="0"/></linearGradient><linearGradient id="b"><stop offset="0" stop-opacity=".313725"/><stop offset=".222222" stop-opacity=".27451"/><stop offset="1" stop-opacity="0"/></linearGradient><radialGradient id="c" cx="450.908936" cy="189.579361" gradientTransform="matrix(.00000026 -.117199 -.210958 -.00000015 80.180539 95.392999)" gradientUnits="userSpaceOnUse" r="21.166656" xlink:href="#b"/><radialGradient id="d" cx="450.908936" cy="189.579361" gradientTransform="matrix(-.00000026 .117199 .210958 .00000015 -32.550992 -11.291218)" gradientUnits="userSpaceOnUse" r="21.166656" xlink:href="#b"/><radialGradient id="e" cx="450.908936" cy="189.579361" gradientTransform="matrix(-.00000026 -.117199 .210958 -.00000015 -32.550992 95.392999)" gradientUnits="userSpaceOnUse" r="21.166656" xlink:href="#b"/><radialGradient id="f" cx="450.908936" cy="189.579361" gradientTransform="matrix(.00000026 .117199 -.210958 .00000015 80.180537 -11.291219)" gradientUnits="userSpaceOnUse" r="21.166656" xlink:href="#b"/><linearGradient id="g" gradientUnits="userSpaceOnUse" x1="3.96913087499" x2="23.814786" y1="23.19752899998" y2="23.19752899998"><stop offset="0" stop-color="#eee"/><stop offset="1" stop-color="#e0e0e0"/></linearGradient><linearGradient id="h" gradientUnits="userSpaceOnUse" x1="43.6604399999" x2="23.814786" y1="22.20524556251" y2="22.20524556251"><stop offset="0" stop-color="#e0e0e0"/><stop offset="1" stop-color="#bdbdbd"/></linearGradient><linearGradient id="i" gradientUnits="userSpaceOnUse" x1="211.666392" x2="211.666392" y1="101.20820518561" y2="-173.95812698521"><stop offset="0" stop-color="#ef5350"/><stop offset="1" stop-color="#e57373"/></linearGradient><path d="m6.945312 42.050781h33.738282v1.984375h-33.738282zm0 0" fill="url(#a)"/><path d="m40.683594 42.050781h3.96875v-1.984375h-3.96875zm0 0" fill="url(#c)"/><path d="m6.945312 42.050781h-3.96875v1.984375h3.96875zm0 0" fill="url(#d)"/><path d="m6.945312 42.050781h-3.96875v-1.984375h3.96875zm0 0" fill="url(#e)"/><path d="m40.683594 42.050781h3.96875v1.984375h-3.96875zm0 0" fill="url(#f)"/><path d="m5.953125 4.34375h35.722656c1.097657 0 1.984375.890625 1.984375 1.984375v33.738281c0 1.097656-.886718 1.984375-1.984375 1.984375h-35.722656c-1.09375 0-1.984375-.886719-1.984375-1.984375v-33.738281c0-1.09375.890625-1.984375 1.984375-1.984375zm0 0" fill="url(#g)"/><path d="m23.816406 4.34375v37.707031h17.859375c1.097657 0 1.984375-.886719 1.984375-1.984375v-33.738281c0-1.097656-.886718-1.984375-1.984375-1.984375zm0 0" fill="url(#h)"/><path d="m5.953125 42.058594c-1.097656 0-1.984375-.886719-1.984375-1.984375v-.378907c0 1.097657.886719 1.984376 1.984375 1.984376h35.722656c1.097657 0 1.984375-.886719 1.984375-1.984376v.378907c0 1.097656-.886718 1.984375-1.984375 1.984375zm0 0" fill-opacity=".196078"/><path d="m5.953125 4.34375c-1.097656 0-1.984375.886719-1.984375 1.984375v.378906c0-1.097656.886719-1.984375 1.984375-1.984375h35.722656c1.097657 0 1.984375.886719 1.984375 1.984375v-.378906c0-1.097656-.886718-1.984375-1.984375-1.984375zm0 0" fill="#fff" fill-opacity=".588235"/><path d="m6.945312 10.296875h14.390626c.273437 0 .496093.222656.496093.496094 0 .273437-.222656.496093-.496093.496093h-14.390626c-.273437 0-.496093-.222656-.496093-.496093 0-.273438.222656-.496094.496093-.496094zm0 0" fill="#424242"/><path d="m6.945312 13.273438h14.390626c.273437 0 .496093.222656.496093.496093 0 .273438-.222656.496094-.496093.496094h-14.390626c-.273437 0-.496093-.222656-.496093-.496094 0-.273437.222656-.496093.496093-.496093zm0 0" fill="#424242"/><path d="m6.945312 16.25h14.390626c.273437 0 .496093.222656.496093.496094 0 .277344-.222656.496094-.496093.496094h-14.390626c-.273437 0-.496093-.21875-.496093-.496094 0-.273438.222656-.496094.496093-.496094zm0 0" fill="#424242"/><path d="m6.945312 19.226562h14.390626c.273437 0 .496093.222657.496093.496094 0 .277344-.222656.496094-.496093.496094h-14.390626c-.273437 0-.496093-.21875-.496093-.496094 0-.273437.222656-.496094.496093-.496094zm0 0" fill="#424242"/><path d="m5.953125 4.203125c-1.175781 0-2.125.949219-2.125 2.125v33.738281c0 1.175782.949219 2.125 2.125 2.125h35.722656c1.175781 0 2.125-.949218 2.125-2.125v-33.738281c0-1.175781-.949219-2.125-2.125-2.125zm0 .28125h35.722656c1.023438 0 1.84375.820313 1.84375 1.84375v33.738281c0 1.023438-.820312 1.84375-1.84375 1.84375h-35.722656c-1.023437 0-1.84375-.820312-1.84375-1.84375v-33.738281c0-1.023437.820313-1.84375 1.84375-1.84375zm0 0" fill="#212121"/><path d="m24.0625 4.34375v37.707031h-.246094v-37.707031zm0 0" fill-opacity=".196078"/><path d="m23.816406 4.34375v37.707031h-.25v-37.707031zm0 0" fill="#e6e6e6" fill-opacity=".588235"/><path d="m23.9375 4.34375v37.707031h-.246094v-37.707031zm0 0" fill="#212121" fill-opacity=".992157"/><path d="m6.945312 22.207031h14.390626c.273437 0 .496093.21875.496093.496094 0 .273437-.222656.496094-.496093.496094h-14.390626c-.273437 0-.496093-.222657-.496093-.496094 0-.277344.222656-.496094.496093-.496094zm0 0" fill="#424242"/><path d="m6.945312 25.183594h14.390626c.273437 0 .496093.21875.496093.496094 0 .273437-.222656.496093-.496093.496093h-14.390626c-.273437 0-.496093-.222656-.496093-.496093 0-.277344.222656-.496094.496093-.496094zm0 0" fill="#424242"/><path d="m6.945312 28.160156h14.390626c.273437 0 .496093.222656.496093.496094s-.222656.496094-.496093.496094h-14.390626c-.273437 0-.496093-.222656-.496093-.496094s.222656-.496094.496093-.496094zm0 0" fill="#424242"/><path d="m6.945312 31.136719h14.390626c.273437 0 .496093.222656.496093.496093 0 .273438-.222656.496094-.496093.496094h-14.390626c-.273437 0-.496093-.222656-.496093-.496094 0-.273437.222656-.496093.496093-.496093zm0 0" fill="#424242"/><path d="m201.064133-173.962252c-5.832777 0-10.582323 4.707884-10.582323 10.582323v243.435086c0 1.416531.166651 2.7914.416627 4.166269l20.748018-57.077883c2.666412-6.624367 7.957574-6.624367 10.623986 0l20.748019 57.077883c.249976-1.374869.416626-2.749738.416626-4.166269v-243.435086c0-5.874439-4.749546-10.582323-10.582322-10.582323zm0 0" fill="url(#i)" stroke="#212121" stroke-linecap="round" stroke-width="3" transform="matrix(.093759 0 0 .093759 0 20.158175)"/><g fill="#424242"><path d="m26.296875 10.296875h14.386719c.273437 0 .496094.222656.496094.496094 0 .273437-.222657.496093-.496094.496093h-14.386719c-.277344 0-.496094-.222656-.496094-.496093 0-.273438.21875-.496094.496094-.496094zm0 0"/><path d="m26.296875 13.273438h14.386719c.273437 0 .496094.222656.496094.496093 0 .273438-.222657.496094-.496094.496094h-14.386719c-.277344 0-.496094-.222656-.496094-.496094 0-.273437.21875-.496093.496094-.496093zm0 0"/><path d="m26.296875 16.25h14.386719c.273437 0 .496094.222656.496094.496094 0 .277344-.222657.496094-.496094.496094h-14.386719c-.277344 0-.496094-.21875-.496094-.496094 0-.273438.21875-.496094.496094-.496094zm0 0"/><path d="m26.296875 19.226562h14.386719c.273437 0 .496094.222657.496094.496094 0 .277344-.222657.496094-.496094.496094h-14.386719c-.277344 0-.496094-.21875-.496094-.496094 0-.273437.21875-.496094.496094-.496094zm0 0"/><path d="m26.296875 22.207031h14.386719c.273437 0 .496094.21875.496094.496094 0 .273437-.222657.496094-.496094.496094h-14.386719c-.277344 0-.496094-.222657-.496094-.496094 0-.277344.21875-.496094.496094-.496094zm0 0"/><path d="m26.296875 25.183594h14.386719c.273437 0 .496094.21875.496094.496094 0 .273437-.222657.496093-.496094.496093h-14.386719c-.277344 0-.496094-.222656-.496094-.496093 0-.277344.21875-.496094.496094-.496094zm0 0"/><path d="m26.296875 28.160156h14.386719c.273437 0 .496094.222656.496094.496094s-.222657.496094-.496094.496094h-14.386719c-.277344 0-.496094-.222656-.496094-.496094s.21875-.496094.496094-.496094zm0 0"/><path d="m26.296875 31.136719h14.386719c.273437 0 .496094.222656.496094.496093 0 .273438-.222657.496094-.496094.496094h-14.386719c-.277344 0-.496094-.222656-.496094-.496094 0-.273437.21875-.496093.496094-.496093zm0 0"/></g></svg>

<?xml version="1.0" encoding="UTF-8"?>
<svg xmlns="http://www.w3.org/2000/svg" xmlns:xlink="http://www.w3.org/1999/xlink" width="48pt" height="48pt" viewBox="0 0 48 48" version="1.1">
<defs>
<linearGradient id="linear0" gradientUnits="userSpaceOnUse" x1="254" y1="233.5" x2="254" y2="254.666672" gradientTransform="matrix(0.093759,0,0,0.093759,-5.953699,20.158178)">
<stop offset="0" style="stop-color:rgb(0%,0%,0%);stop-opacity:0.27451;"/>
<stop offset="1" style="stop-color:rgb(0%,0%,0%);stop-opacity:0;"/>
</linearGradient>
<radialGradient id="radial0" gradientUnits="userSpaceOnUse" cx="450.908936" cy="189.579361" fx="450.908936" fy="189.579361" r="21.166656" gradientTransform="matrix(0.000000261256,-0.117199,-0.210958,-0.000000152308,80.180539,95.392999)">
<stop offset="0" style="stop-color:rgb(0%,0%,0%);stop-opacity:0.313725;"/>
<stop offset="0.222222" style="stop-color:rgb(0%,0%,0%);stop-opacity:0.27451;"/>
<stop offset="1" style="stop-color:rgb(0%,0%,0%);stop-opacity:0;"/>
</radialGradient>
<radialGradient id="radial1" gradientUnits="userSpaceOnUse" cx="450.908936" cy="189.579361" fx="450.908936" fy="189.579361" r="21.166656" gradientTransform="matrix(-0.000000261256,0.117199,0.210958,0.000000152308,-32.550992,-11.291218)">
<stop offset="0" style="stop-color:rgb(0%,0%,0%);stop-opacity:0.313725;"/>
<stop offset="0.222222" style="stop-color:rgb(0%,0%,0%);stop-opacity:0.27451;"/>
<stop offset="1" style="stop-color:rgb(0%,0%,0%);stop-opacity:0;"/>
</radialGradient>
<radialGradient id="radial2" gradientUnits="userSpaceOnUse" cx="450.908936" cy="189.579361" fx="450.908936" fy="189.579361" r="21.166656" gradientTransform="matrix(-0.000000261256,-0.117199,0.210958,-0.000000152308,-32.550992,95.392999)">
<stop offset="0" style="stop-color:rgb(0%,0%,0%);stop-opacity:0.313725;"/>
<stop offset="0.222222" style="stop-color:rgb(0%,0%,0%);stop-opacity:0.27451;"/>
<stop offset="1" style="stop-color:rgb(0%,0%,0%);stop-opacity:0;"/>
</radialGradient>
<radialGradient id="radial3" gradientUnits="userSpaceOnUse" cx="450.908936" cy="189.579361" fx="450.908936" fy="189.579361" r="21.166656" gradientTransform="matrix(0.000000261256,0.117199,-0.210958,0.000000152308,80.180537,-11.291219)">
<stop offset="0" style="stop-color:rgb(0%,0%,0%);stop-opacity:0.313725;"/>
<stop offset="0.222222" style="stop-color:rgb(0%,0%,0%);stop-opacity:0.27451;"/>
<stop offset="1" style="stop-color:rgb(0%,0%,0%);stop-opacity:0;"/>
</radialGradient>
<linearGradient id="linear1" gradientUnits="userSpaceOnUse" x1="42.333332" y1="32.416664" x2="254" y2="32.416664" gradientTransform="matrix(0.093759,0,0,0.093759,0,20.158175)">
<stop offset="0" style="stop-color:rgb(93.333333%,93.333333%,93.333333%);stop-opacity:1;"/>
<stop offset="1" style="stop-color:rgb(87.843137%,87.843137%,87.843137%);stop-opacity:1;"/>
</linearGradient>
<linearGradient id="linear2" gradientUnits="userSpaceOnUse" x1="465.666656" y1="21.833334" x2="254" y2="21.833334" gradientTransform="matrix(0.093759,0,0,0.093759,0,20.158174)">
<stop offset="0" style="stop-color:rgb(87.843137%,87.843137%,87.843137%);stop-opacity:1;"/>
<stop offset="1" style="stop-color:rgb(74.117647%,74.117647%,74.117647%);stop-opacity:1;"/>
</linearGradient>
<linearGradient id="linear3" gradientUnits="userSpaceOnUse" x1="840" y1="1175.118164" x2="840" y2="135.118118" gradientTransform="matrix(0.264583,0,0,0.264583,-10.583328,-209.708084)">
<stop offset="0" style="stop-color:rgb(93.72549%,32.54902%,31.372549%);stop-opacity:1;"/>
<stop offset="1" style="stop-color:rgb(89.803922%,45.098039%,45.098039%);stop-opacity:1;"/>
</linearGradient>
</defs>
<g id="surface1">
<path style=" stroke:none;fill-rule:nonzero;fill:url(#linear0);" d="M 6.945312 42.050781 L 40.683594 42.050781 L 40.683594 44.035156 L 6.945312 44.035156 Z M 6.945312 42.050781 "/>
<path style=" stroke:none;fill-rule:nonzero;fill:url(#radial0);" d="M 40.683594 42.050781 L 44.652344 42.050781 L 44.652344 40.066406 L 40.683594 40.066406 Z M 40.683594 42.050781 "/>
<path style=" stroke:none;fill-rule:nonzero;fill:url(#radial1);" d="M 6.945312 42.050781 L 2.976562 42.050781 L 2.976562 44.035156 L 6.945312 44.035156 Z M 6.945312 42.050781 "/>
<path style=" stroke:none;fill-rule:nonzero;fill:url(#radial2);" d="M 6.945312 42.050781 L 2.976562 42.050781 L 2.976562 40.066406 L 6.945312 40.066406 Z M 6.945312 42.050781 "/>
<path style=" stroke:none;fill-rule:nonzero;fill:url(#radial3);" d="M 40.683594 42.050781 L 44.652344 42.050781 L 44.652344 44.035156 L 40.683594 44.035156 Z M 40.683594 42.050781 "/>
<path style=" stroke:none;fill-rule:nonzero;fill:url(#linear1);" d="M 5.953125 4.34375 L 41.675781 4.34375 C 42.773438 4.34375 43.660156 5.234375 43.660156 6.328125 L 43.660156 40.066406 C 43.660156 41.164062 42.773438 42.050781 41.675781 42.050781 L 5.953125 42.050781 C 4.859375 42.050781 3.96875 41.164062 3.96875 40.066406 L 3.96875 6.328125 C 3.96875 5.234375 4.859375 4.34375 5.953125 4.34375 Z M 5.953125 4.34375 "/>
<path style=" stroke:none;fill-rule:nonzero;fill:url(#linear2);" d="M 23.816406 4.34375 L 23.816406 42.050781 L 41.675781 42.050781 C 42.773438 42.050781 43.660156 41.164062 43.660156 40.066406 L 43.660156 6.328125 C 43.660156 5.230469 42.773438 4.34375 41.675781 4.34375 Z M 23.816406 4.34375 "/>
<path style=" stroke:none;fill-rule:nonzero;fill:rgb(0%,0%,0%);fill-opacity:0.196078;" d="M 5.953125 42.058594 C 4.855469 42.058594 3.96875 41.171875 3.96875 40.074219 L 3.96875 39.695312 C 3.96875 40.792969 4.855469 41.679688 5.953125 41.679688 L 41.675781 41.679688 C 42.773438 41.679688 43.660156 40.792969 43.660156 39.695312 L 43.660156 40.074219 C 43.660156 41.171875 42.773438 42.058594 41.675781 42.058594 Z M 5.953125 42.058594 "/>
<path style=" stroke:none;fill-rule:nonzero;fill:rgb(100%,100%,100%);fill-opacity:0.588235;" d="M 5.953125 4.34375 C 4.855469 4.34375 3.96875 5.230469 3.96875 6.328125 L 3.96875 6.707031 C 3.96875 5.609375 4.855469 4.722656 5.953125 4.722656 L 41.675781 4.722656 C 42.773438 4.722656 43.660156 5.609375 43.660156 6.707031 L 43.660156 6.328125 C 43.660156 5.230469 42.773438 4.34375 41.675781 4.34375 Z M 5.953125 4.34375 "/>
<path style=" stroke:none;fill-rule:nonzero;fill:rgb(25.882354%,25.882354%,25.882354%);fill-opacity:1;" d="M 6.945312 10.296875 L 21.335938 10.296875 C 21.609375 10.296875 21.832031 10.519531 21.832031 10.792969 C 21.832031 11.066406 21.609375 11.289062 21.335938 11.289062 L 6.945312 11.289062 C 6.671875 11.289062 6.449219 11.066406 6.449219 10.792969 C 6.449219 10.519531 6.671875 10.296875 6.945312 10.296875 Z M 6.945312 10.296875 "/>
<path style=" stroke:none;fill-rule:nonzero;fill:rgb(25.882354%,25.882354%,25.882354%);fill-opacity:1;" d="M 6.945312 13.273438 L 21.335938 13.273438 C 21.609375 13.273438 21.832031 13.496094 21.832031 13.769531 C 21.832031 14.042969 21.609375 14.265625 21.335938 14.265625 L 6.945312 14.265625 C 6.671875 14.265625 6.449219 14.042969 6.449219 13.769531 C 6.449219 13.496094 6.671875 13.273438 6.945312 13.273438 Z M 6.945312 13.273438 "/>
<path style=" stroke:none;fill-rule:nonzero;fill:rgb(25.882354%,25.882354%,25.882354%);fill-opacity:1;" d="M 6.945312 16.25 L 21.335938 16.25 C 21.609375 16.25 21.832031 16.472656 21.832031 16.746094 C 21.832031 17.023438 21.609375 17.242188 21.335938 17.242188 L 6.945312 17.242188 C 6.671875 17.242188 6.449219 17.023438 6.449219 16.746094 C 6.449219 16.472656 6.671875 16.25 6.945312 16.25 Z M 6.945312 16.25 "/>
<path style=" stroke:none;fill-rule:nonzero;fill:rgb(25.882354%,25.882354%,25.882354%);fill-opacity:1;" d="M 6.945312 19.226562 L 21.335938 19.226562 C 21.609375 19.226562 21.832031 19.449219 21.832031 19.722656 C 21.832031 20 21.609375 20.21875 21.335938 20.21875 L 6.945312 20.21875 C 6.671875 20.21875 6.449219 20 6.449219 19.722656 C 6.449219 19.449219 6.671875 19.226562 6.945312 19.226562 Z M 6.945312 19.226562 "/>
<path style=" stroke:none;fill-rule:nonzero;fill:rgb(12.941177%,12.941177%,12.941177%);fill-opacity:1;" d="M 5.953125 4.203125 C 4.777344 4.203125 3.828125 5.152344 3.828125 6.328125 L 3.828125 40.066406 C 3.828125 41.242188 4.777344 42.191406 5.953125 42.191406 L 41.675781 42.191406 C 42.851562 42.191406 43.800781 41.242188 43.800781 40.066406 L 43.800781 6.328125 C 43.800781 5.152344 42.851562 4.203125 41.675781 4.203125 Z M 5.953125 4.484375 L 41.675781 4.484375 C 42.699219 4.484375 43.519531 5.304688 43.519531 6.328125 L 43.519531 40.066406 C 43.519531 41.089844 42.699219 41.910156 41.675781 41.910156 L 5.953125 41.910156 C 4.929688 41.910156 4.109375 41.089844 4.109375 40.066406 L 4.109375 6.328125 C 4.109375 5.304688 4.929688 4.484375 5.953125 4.484375 Z M 5.953125 4.484375 "/>
<path style=" stroke:none;fill-rule:nonzero;fill:rgb(0%,0%,0%);fill-opacity:0.196078;" d="M 24.0625 4.34375 L 24.0625 42.050781 L 23.816406 42.050781 L 23.816406 4.34375 Z M 24.0625 4.34375 "/>
<path style=" stroke:none;fill-rule:nonzero;fill:rgb(90.196079%,90.196079%,90.196079%);fill-opacity:0.588235;" d="M 23.816406 4.34375 L 23.816406 42.050781 L 23.566406 42.050781 L 23.566406 4.34375 Z M 23.816406 4.34375 "/>
<path style=" stroke:none;fill-rule:nonzero;fill:rgb(12.941177%,12.941177%,12.941177%);fill-opacity:0.992157;" d="M 23.9375 4.34375 L 23.9375 42.050781 L 23.691406 42.050781 L 23.691406 4.34375 Z M 23.9375 4.34375 "/>
<path style=" stroke:none;fill-rule:nonzero;fill:rgb(25.882354%,25.882354%,25.882354%);fill-opacity:1;" d="M 6.945312 22.207031 L 21.335938 22.207031 C 21.609375 22.207031 21.832031 22.425781 21.832031 22.703125 C 21.832031 22.976562 21.609375 23.199219 21.335938 23.199219 L 6.945312 23.199219 C 6.671875 23.199219 6.449219 22.976562 6.449219 22.703125 C 6.449219 22.425781 6.671875 22.207031 6.945312 22.207031 Z M 6.945312 22.207031 "/>
<path style=" stroke:none;fill-rule:nonzero;fill:rgb(25.882354%,25.882354%,25.882354%);fill-opacity:1;" d="M 6.945312 25.183594 L 21.335938 25.183594 C 21.609375 25.183594 21.832031 25.402344 21.832031 25.679688 C 21.832031 25.953125 21.609375 26.175781 21.335938 26.175781 L 6.945312 26.175781 C 6.671875 26.175781 6.449219 25.953125 6.449219 25.679688 C 6.449219 25.402344 6.671875 25.183594 6.945312 25.183594 Z M 6.945312 25.183594 "/>
<path style=" stroke:none;fill-rule:nonzero;fill:rgb(25.882354%,25.882354%,25.882354%);fill-opacity:1;" d="M 6.945312 28.160156 L 21.335938 28.160156 C 21.609375 28.160156 21.832031 28.382812 21.832031 28.65625 C 21.832031 28.929688 21.609375 29.152344 21.335938 29.152344 L 6.945312 29.152344 C 6.671875 29.152344 6.449219 28.929688 6.449219 28.65625 C 6.449219 28.382812 6.671875 28.160156 6.945312 28.160156 Z M 6.945312 28.160156 "/>
<path style=" stroke:none;fill-rule:nonzero;fill:rgb(25.882354%,25.882354%,25.882354%);fill-opacity:1;" d="M 6.945312 31.136719 L 21.335938 31.136719 C 21.609375 31.136719 21.832031 31.359375 21.832031 31.632812 C 21.832031 31.90625 21.609375 32.128906 21.335938 32.128906 L 6.945312 32.128906 C 6.671875 32.128906 6.449219 31.90625 6.449219 31.632812 C 6.449219 31.359375 6.671875 31.136719 6.945312 31.136719 Z M 6.945312 31.136719 "/>
<path style="fill-rule:nonzero;fill:url(#linear3);stroke-width:3;stroke-linecap:round;stroke-linejoin:miter;stroke:rgb(12.941177%,12.941177%,12.941177%);stroke-opacity:1;stroke-miterlimit:4;" d="M 201.064133 -173.962252 C 195.231356 -173.962252 190.48181 -169.254368 190.48181 -163.379929 L 190.48181 80.055157 C 190.48181 81.471688 190.648461 82.846557 190.898437 84.221426 L 211.646455 27.143543 C 214.312867 20.519176 219.604029 20.519176 222.270441 27.143543 L 243.01846 84.221426 C 243.268436 82.846557 243.435086 81.471688 243.435086 80.055157 L 243.435086 -163.379929 C 243.435086 -169.254368 238.68554 -173.962252 232.852764 -173.962252 Z M 201.064133 -173.962252 " transform="matrix(0.093759,0,0,0.093759,0,20.158175)"/>
<path style=" stroke:none;fill-rule:nonzero;fill:rgb(25.882354%,25.882354%,25.882354%);fill-opacity:1;" d="M 26.296875 10.296875 L 40.683594 10.296875 C 40.957031 10.296875 41.179688 10.519531 41.179688 10.792969 C 41.179688 11.066406 40.957031 11.289062 40.683594 11.289062 L 26.296875 11.289062 C 26.019531 11.289062 25.800781 11.066406 25.800781 10.792969 C 25.800781 10.519531 26.019531 10.296875 26.296875 10.296875 Z M 26.296875 10.296875 "/>
<path style=" stroke:none;fill-rule:nonzero;fill:rgb(25.882354%,25.882354%,25.882354%);fill-opacity:1;" d="M 26.296875 13.273438 L 40.683594 13.273438 C 40.957031 13.273438 41.179688 13.496094 41.179688 13.769531 C 41.179688 14.042969 40.957031 14.265625 40.683594 14.265625 L 26.296875 14.265625 C 26.019531 14.265625 25.800781 14.042969 25.800781 13.769531 C 25.800781 13.496094 26.019531 13.273438 26.296875 13.273438 Z M 26.296875 13.273438 "/>
<path style=" stroke:none;fill-rule:nonzero;fill:rgb(25.882354%,25.882354%,25.882354%);fill-opacity:1;" d="M 26.296875 16.25 L 40.683594 16.25 C 40.957031 16.25 41.179688 16.472656 41.179688 16.746094 C 41.179688 17.023438 40.957031 17.242188 40.683594 17.242188 L 26.296875 17.242188 C 26.019531 17.242188 25.800781 17.023438 25.800781 16.746094 C 25.800781 16.472656 26.019531 16.25 26.296875 16.25 Z M 26.296875 16.25 "/>
<path style=" stroke:none;fill-rule:nonzero;fill:rgb(25.882354%,25.882354%,25.882354%);fill-opacity:1;" d="M 26.296875 19.226562 L 40.683594 19.226562 C 40.957031 19.226562 41.179688 19.449219 41.179688 19.722656 C 41.179688 20 40.957031 20.21875 40.683594 20.21875 L 26.296875 20.21875 C 26.019531 20.21875 25.800781 20 25.800781 19.722656 C 25.800781 19.449219 26.019531 19.226562 26.296875 19.226562 Z M 26.296875 19.226562 "/>
<path style=" stroke:none;fill-rule:nonzero;fill:rgb(25.882354%,25.882354%,25.882354%);fill-opacity:1;" d="M 26.296875 22.207031 L 40.683594 22.207031 C 40.957031 22.207031 41.179688 22.425781 41.179688 22.703125 C 41.179688 22.976562 40.957031 23.199219 40.683594 23.199219 L 26.296875 23.199219 C 26.019531 23.199219 25.800781 22.976562 25.800781 22.703125 C 25.800781 22.425781 26.019531 22.207031 26.296875 22.207031 Z M 26.296875 22.207031 "/>
<path style=" stroke:none;fill-rule:nonzero;fill:rgb(25.882354%,25.882354%,25.882354%);fill-opacity:1;" d="M 26.296875 25.183594 L 40.683594 25.183594 C 40.957031 25.183594 41.179688 25.402344 41.179688 25.679688 C 41.179688 25.953125 40.957031 26.175781 40.683594 26.175781 L 26.296875 26.175781 C 26.019531 26.175781 25.800781 25.953125 25.800781 25.679688 C 25.800781 25.402344 26.019531 25.183594 26.296875 25.183594 Z M 26.296875 25.183594 "/>
<path style=" stroke:none;fill-rule:nonzero;fill:rgb(25.882354%,25.882354%,25.882354%);fill-opacity:1;" d="M 26.296875 28.160156 L 40.683594 28.160156 C 40.957031 28.160156 41.179688 28.382812 41.179688 28.65625 C 41.179688 28.929688 40.957031 29.152344 40.683594 29.152344 L 26.296875 29.152344 C 26.019531 29.152344 25.800781 28.929688 25.800781 28.65625 C 25.800781 28.382812 26.019531 28.160156 26.296875 28.160156 Z M 26.296875 28.160156 "/>
<path style=" stroke:none;fill-rule:nonzero;fill:rgb(25.882354%,25.882354%,25.882354%);fill-opacity:1;" d="M 26.296875 31.136719 L 40.683594 31.136719 C 40.957031 31.136719 41.179688 31.359375 41.179688 31.632812 C 41.179688 31.90625 40.957031 32.128906 40.683594 32.128906 L 26.296875 32.128906 C 26.019531 32.128906 25.800781 31.90625 25.800781 31.632812 C 25.800781 31.359375 26.019531 31.136719 26.296875 31.136719 Z M 26.296875 31.136719 "/>
</g>
</svg>
